X:1
T:For Christ Is Our Endeavor
T:James Ramsey Murray
T:For Christ Is Our Endeavor
T:Public Domain
T:Public Domain
C:James Ramsey Murray
Z:Public Domain
%%score ( 1 2 ) 3
L:1/8
M:4/4
K:Eb
V:1 treble 
V:2 treble 
V:3 bass 
V:1
 [EG]2 | [GB]3 [GB] [^F=A]2 [_Ac]2 | [GB]4 [EG]2 [EG]2 | [DG]2 [DF]2 [DB]3 [DF] | [EG]6 [EG]2 | %5
w: 1.~For|Christ is our en-|dea- vor, Our|hearts to Him be-|long; His|
w: 2.~In|full- ness of His|mer- cy, Good|work for Him we|do; His|
w: 3.~So|with youth’s ar- dor|glow- ing, We|will- ing ser- vice|give; The|
 [GB]3 [GB] [^F=A]2 [_Ac]2 | [GB]4 [EG]2 [EG]2 | [DF]2 [Fd]2 [Ec]2 [E=A]2 | [DB]6 [AB]2 | %9
w: pre- sence cheers us|ev- er, His|love in- spires our|song; We|
w: Name with joy con-|fess- ing, His|stand- ard bear- ers|true: And|
w: mind of Je- sus|know- ing, We|for His hon- or|live: For|
 [GB]2 [FA]2 [Bd]2 [Ac]2 | [Ac]4 [GB]2 [GB]2 | [GB]2 [FA]2 [Bd]2 [Ac]2 | [GB]6 [EG]2 | %13
w: come in youth’s bright|morn- ing, O-|be- dient to His|Word; And|
w: He will ne- ver|fail us, What-|ev- er may be-|tide; Tho’|
w: He is our en-|dea- vor, And|to Him we be-|long; Whose|
 [=EG]2 [EG]2 [Ec]3 [EG] | [GB]4 [FA]2 [FA]2 | [Bd]3 [Ac] [GB]2 [FA]2 | [EG]6 [GB]2 | %17
w: seek for our a-|dorn- ing, The|beau- ty of the|Lord: And|
w: dan- ger should as-|sail us, In|Him we safe a-|bide: Tho’|
w: grace shall ne- ver|fail us, Whose|love in- spires our|song: Whose|
 [GB]2 [Gc]2 [Gd]2 [Ge]2 | (f2 e2) [Ad]2 [Ac]2 | [EB]2 [EB]2 [DG]2 [B,F]2 | [B,E]6 |] %21
w: seek for our a-|dorn- * ing, The|ty of the Lord.||
w: dan- ger should as-|sail * us, In|we safe a- bide.||
w: grace shall ne- ver|fail * us, Whose|in- spires our song.||
V:2
 x2 | x8 | x8 | x8 | x8 | x8 | x8 | x8 | x8 | x8 | x8 | x8 | x8 | x8 | x8 | x8 | x8 | x8 | A4 x4 | %19
w: ||||||||||||||||||beau-|
w: ||||||||||||||||||Him|
w: ||||||||||||||||||love|
 x8 | x6 |] %21
w: ||
w: ||
w: ||
V:3
 [E,E]2 | [E,E]3 [E,E] [E,E]2 [E,E]2 | [E,E]4 [E,B,]2 [E,B,]2 | %3
 [B,,B,]2 [B,,A,]2 [B,,F,]3 [B,,B,] | [E,B,]6 [E,E]2 | [E,E]3 [E,E] [E,E]2 [E,E]2 | %6
 [E,E]4 [E,B,]2 [E,B,]2 | [F,B,]2 [F,B,]2 [F,=A,]2 [F,C]2 | [B,,B,]6 z2 | B,,8 | E,8 | F,4 B,,4 | %12
 E,6 z2 | C,8 | F,8 | B,,8 | E,6 [E,E]2 | [E,E]2 [E,E]2 [E,B,]2 [E,B,]2 | %18
 [A,,C]4 [A,,B,]2 [A,,A,]2 | [B,,G,]2 [B,,G,]2 [B,,B,]2 [B,,A,]2 | [E,G,]6 |] %21

